X: 25739
T: Mary McMahon
R: reel
M: 4/4
K: Dmajor
|:ag|fdec d2AG|FGAB =cAGc|Adde fded|cdef g2ag|
fdec d2AG|FGAB =cAGc|Adde fdec|ABcA d2:|
de|:fefg a2ga|bgag fdde|fefg a2ga|bgaf gbag|
fefg a2ga|bgag fdd2|bgaf gfed|cdef g2ag:|

